X: 0121
U: Q=!diminuendo(!
U: q=!diminuendo)!
U: P=!crescendo(!
U: p=!crescendo)!
M: 2/4
L: 1/16
K: Eb
V: 1
K: F
"^12.1.1"\
"FIRST CORNOPEAN""or BUGLE in Bb"!ff!FF |\
d2d2 c2c2 | (AB)(GA) F2F2 | d2d2 c2cc | d2d2 c2cc |
"^12.2.1"\
d2d2 cccc | (AB)(GA) F4 |[| A3F G2A2 | c6 d2 |\
"^13.1.1"\
(dc)(dc) (Ac).c.c | G2A2 F4 |\
f4 f3f | g2f2 d3c | (dc)(dc) (Ac).c.c | G2A2 F4 \
|:[K:Bb]!p!\
f4e2c2 | (d2f2) f4 | f2ff e2c2 | c2B2 [b3B3]g |\
f3f e2c2 |
"^13.2.1"\
d2f2 f3g | a2f2 _e2cc |1 c2B2 z4 :|2 .c2.B2 z2 |[|\
(Bc) |!ff!\
(d4 B2) (Bc) | (d4 B2) (Bc) | .d2(Bc) d2(ed) | (d2c2) z2(AB) |\
(c4 A2) (AB) | (c4 A2) (AB) |
"^14.1.1"\
g2f2e2c2 | c4 z2(Bc) |\
(d4 B2) (Bc) | (d4 B2) (Bc) | .d2(Bc) .d2(ed) | (d2c2) z2(AB) |\
(c4 A2) (AB) | (c4 A2) (Ac) | g2f2e2c2 | B4 z2!p!(Bc) |\
d2d2 B2B2 |
"^14.2.1"\
d2d2 B2B2 | A2 c4 d2 | f2e2 G2A2 | B2BB B2BB |\
"^15.1.1"\
!ff!d2d>d d4 | .c2.B2 .G2.B2 | c2c>c c4 | F2F2 G2B2 |\
d2d>d e2d2 | c2B2 G2B2 | c3c d2F2 | F2F2 G2B2 |
"^15.2.1"\
!pp!B2B2 c2d2 | B2B2 A2F2 | B2B2 c2d2 | (B4 A2)F2 |\
.B2.B2 .c2.d2 | .e2.d2 .c2.B2 | .A2.F2 .G2.A2 |\
!ff!B4 z2A2 | B4 z2A2 | B2z2 B2z2 | B4 z4 |]
V: 2
K: F
"^12.1.2"\
"SECOND CORNOPEAN""or BUGLE in Bb"!ff!FF |\
"^12.2.2"\
"^13.1.2"\
(BA)(BA) (FA).A.A | =E2E2 F4 |\
d4 d3d | _e2d2 B3A | (BA)(BA) (FA).A.A | E2E2 F4 \
|:[K:Bb]!p!\
c4 A4 | (B2d2) d4 | d2dd c2A2 | A2B2 d3e |\
c3c c2A2 |
"^13.2.2"\
z2 |!ff!\
z2FF D2z2 | z2FF D2z2 | z2D2 z2B2 | z2AA A2F2 |\
z2AA F2z2 | z2AA F2z2 |
"^14.1.2"\
z2FF D2z2 | z2FF D2z2 | z2D2 z2B2 | z2AA A2F2 |\
z2AA F2z2 | z2AA F2zz | A4 A2A2 | B4 z4 |\
!p!z2F2 z2F2 |
"^14.2.2"\
z2AA A2A2 | z2A2 z2F2 | z2FF F2F2 |\
z2F2 z2F2 | z2AA A2A2 | z2A2 z2F2 | D2DD D2DD |\
"^15.1.2"\
!ff!B2B>B B4 | E2D2 E2D2 | A2A>A A4 | D2D2 E2D2 |\
"^15.2.2"\
!pp!D2D2 E2F2 | D2D2 C2E2 | D2D2 E2F2 | (D4 C2)E2 |\
.D2.D2 .E2.F2 | .G2.F2 .E2.D2 | .C2.D2 .E2.C2 |\
!ff!D4 z2C2 | D4 z2C2 | D2z2 D2z2 | D4 z4 |]
V: 3 clef=bass middle=D
K: Eb
"^12.1.3"\
"TROMBONE"!ff!EE |\
E2EE E2EE | E2EE E2E2 | !p!E2E2 E2EE | E2E2 E2zE |\
E2E2 E2E2 | D2A2 G2z2 | E2E2 E2EE | E2E2 E2EE |
"^12.2.3"\
E2E2 EEEE | D2A2 G4 |[| E3G F2E2 | E2EE E2E2 |\
"^13.1.3"\
E2z2 G2z2 | B2B2 G4 |\
|:[K:Ab]!p!\
z2d2 z2d2 | z2c2 z2c2 | z2G2 z2E2 | z2AA A2A2 |\
z2d2 z2d2 |
"^13.2.3"\
z2c2 z2A2 | E2 B4 dd |1 d2c2 z4 :|2 d2c2 z2 |[|\
z2 |!ff!\
e2ee e2z2 | e2ee e2z2 | e8 | z2_dd d2d2 |\
d2dd d2z2 | d2dd d2z2 |
"^14.1.3"\
d4 B2d2 | c4 z4 |\
e2ee e2z2 | e2ee e2z2 | e8 | z2dd d2d2 |\
d2dd d2z2 | d2dd d2z2 | d4 B2d2 | c2QAA qA2A2 |\
!p!z2A2 z2c2 |
"^14.2.3"\
z2dd d2d2 | z2B2 z2d2 | z2cc c2c2 |\
z2c2 z2c2 | z2dd d2d2 | z2B2 z2B2 | A2A2 A2A2 |\
"^15.1.3"\
!ff!e2e>e e4 | z2e2 z2e2 | e2e>e e4 | z2e2 z2e2 |\
z2e>e f2e2 | z2e2 z2e2 | e3e e2e2 | z2e2 z2e2 |
"^15.2.3"\
!pp!e8 | z2e2e2e2 | e2e2 e2e2 | e4- e2z2 |
V: 4 clef=bass middle=d
K: Eb
"^12.1.4"\
"OPHICLEIDE"!ff!ee |\
e2ee e2ee | e2ee e2e2 | !p!e2e2 e2e2 | e2e2 e2e2 |\
e2e2 e2e2 | B2B2 e2e2 | e2e2 e2e2 | e2e2 e2e2 |
"^12.2.4"\
e2e2 e2e2 | B2B2 e4 |[| E4 E4 | E4 z2e2 |\
e2z2 B2z2 | e2B2 G2B2 | E4 E2E2 | E2E2 E2E2 |\
E2G2 B2B2 | E4 E4 |[| !ff!A4 A3A | A2A2 A4 |
"^13.1.4"\
E2z2 E2z2 | B2B2 e4 |\
|:[K:Ab]!p!\
b2z2 e2z2 | a2z2 A2z2 | E2z2 e2z2 | .A2.c2.e2.a2 |\
g2z2 e2z2 |
"^13.2.4"\
a2z2 A2z2 | E2 ee e2e2 |1 A2a2A2z2 :|2 A2a2 z2 |[|\
"^13.2.4"\
z2 |!ff!\
E2ee e2z2 | E2ee e2z2 |
"^14.1.4"\
E4E2E2 | A4 z4 | A2aa a2z2 |\
E2ee e2z2 | E4 E2E2 | A2QAAq A2A2 | !p!A4 A4 |
"^14.2.4"\
E4 z4 | E4 E4 | A4 z4 | A4 A4 |\
E4 z4 | E4 e4 | A2A2 A2A2 | A2A2 A2A2 |\
"^15.1.4"\
!ff!a2a>a a4 | a2a2 a2a2 | e2e>e e4 | a2a2 a2a2 |\
a2a>a a2a2 | a2a2 a2a2 | e3e e2e2 | a2a2 a2a2 |
"^15.2.4"\
!pp!A2A2 A2A2 | A2A2 E2e2 | A2A2 A2A2 | z2E2 e4 |\
a4 z2e2 | a2z2 a2z2 | a4 z4 |]




